X: 177
T: Let Us Leave That As It Is
N:"Gaily" "collected by F. O'Neill"
B:O'Neill's 177
Z:Transcribed by henrik.norbeck@mailbox.swipnet.se
M:6/8
L:1/8
K:A
(A/G/)|(EA).A T(AG).A|(cde) f2 a|{a}g>ec ded|{d}cAF (G2 {AG}E/D/)|
EAA T(AGA)|(cde) f2 a|g>ec (d<c)A|A3 A2:|
d|efg aba|T(gfg) (efg)|aba gec|dcA G2 ({AG}E/D/)|
EAA TAGA|(cde) f2 a|g>ec (d<c)A|A3 A2||


